!!!!SEGMENT: Lhe2021-Ave_Maria_gratia_plena.krn
!!!id: Lhe2021
!!!AGN: Motet
!!!SCT: Smijers (1936)
!!!voices: 4
!!!COM: Jean Lhéritier
!!!OTL: Ave Maria, gratia plena
**kern	**kern	**kern	**kern
*part4	*part3	*part2	*part1
*staff4	*staff3	*staff2	*staff1
*I"Bassus	*I"Tenor	*I"Altus	*I"Superius
*I'B	*I'T	*I'A	*I'S
*clefF4	*clefGv2	*clefGv2	*clefG2
*k[]	*k[]	*k[]	*k[]
*C:	*C:	*C:	*C:
*M2/1	*M2/1	*M2/1	*M2/1
*met(C|)	*met(C|)	*met(C|)	*met(C|)
!!Section: Prima pars: Ave Maria, gratia plena
!!!OMD: Prima pars: Ave Maria, gratia plena
=1	=1	=1	=1
0r	0r	0e	0r
=2	=2	=2	=2
0r	0r	1e	0r
.	.	1f	.
=3	=3	=3	=3
0r	0r	1d	0b
.	.	1e	.
=4	=4	=4	=4
0r	0r	1g	1b
.	.	2f	1cc
.	.	2e	.
=5	=5	=5	=5
0r	0r	1f	1a
.	.	2e	1b
.	.	[2g	.
=6	=6	=6	=6
1r	0r	2g]	1dd
.	.	2f	.
[1E	.	2e	2cc
.	.	2d	[2b
=7	=7	=7	=7
1E]	0r	2c	4b]
.	.	.	4a
.	.	4B	1a
.	.	4A	.
1E	.	1B	.
.	.	.	2g#i
=8	=8	=8	=8
1F	1r	1A	1a
1D	[1B	1r	1r
=9	=9	=9	=9
1E	1B]	0r	0r
1G	1B	.	.
=10	=10	=10	=10
2F	1c	0r	0r
2E	.	.	.
1F	1A	.	.
=11	=11	=11	=11
2E	1B	0r	0r
1G	.	.	.
.	1d	.	.
2F	.	.	.
=12	=12	=12	=12
2E	2c	0r	0r
2D	2.B	.	.
2C	.	.	.
.	4A	.	.
4BB	[2A	.	.
4AA	.	.	.
=13	=13	=13	=13
1BB	2A]	1r	1dd
.	2G#i	.	.
1AA	1A	[1e	2cc
.	.	.	2a
=14	=14	=14	=14
1A	1r	2e]	1cc
.	.	2c	.
2G	2r	2d	1b
2E	2G	[2e	.
=15	=15	=15	=15
1F	2c	2e]	1r
.	2A	2d	.
[1E	1c	1e	[1g
=16	=16	=16	=16
1E]	1B	2r	2g]
.	.	2e	2g
1r	1r	2d	1a
.	.	2c	.
=17	=17	=17	=17
1r	1r	1d	1b
[1C	[1e	1c	[1cc
=18	=18	=18	=18
2C]	2e]	2r	1cc]
2C	2e	2G	.
1F	1d	2A	1r
.	.	[2c	.
=19	=19	=19	=19
1G	1d	2c]	1.g
.	.	2B	.
1C	2c	2c	.
.	2e	2c	2g
=20	=20	=20	=20
1r	2d	2f	1a
.	2c	2e	.
1G	1d	1g	1b
=21	=21	=21	=21
2A	2c	2e	2cc
2.G	2.d	2.g	2.b
4A	4c	4f	4a
2F	4B	2d	[2a
.	4A	.	.
=22	=22	=22	=22
1E	1B	1e	2a]
.	.	.	2g#i
1r	[1A	1c	[1a
=23	=23	=23	=23
0A	1A]	1r	0a]
.	1r	[1e	.
=24	=24	=24	=24
1G	0r	1e]	0r
[1B-X	.	1d	.
=25	=25	=25	=25
1B-]	0d	1.f	0r
[1A	.	.	.
.	.	4e	.
.	.	4d	.
=26	=26	=26	=26
1A]	1c	2e	0a
.	.	2A	.
1D	1f	1A	.
=27	=27	=27	=27
1r	1e	1r	1g
[1A	4A	1e	[1cc
.	4B	.	.
.	4c	.	.
.	4d	.	.
=28	=28	=28	=28
1A]	4e	1c	1cc]
.	4f	.	.
.	1e	.	.
1G	.	[1g	1b
.	2d	.	.
=29	=29	=29	=29
0c	1e	1g]	1e
.	1A	1e	2r
.	.	.	[2a
=30	=30	=30	=30
1B	2r	1d	2a]
.	1d	.	2g
1A	.	1e	2.cc
.	2c	.	.
.	.	.	4b
=31	=31	=31	=31
1r	2.f	1A	2a
.	.	.	2cc
.	4e	.	.
1D	2d	1r	2b
.	2c	.	[2a
=32	=32	=32	=32
1G	1B	1.d	2a]
.	.	.	2g
1F	2A	.	4a
.	.	.	4g
.	2c	2A	4f
.	.	.	4e
=33	=33	=33	=33
1D	2B	2.d	1f
.	1A	.	.
.	.	4c	.
1E	.	1B	[1e
.	2G	.	.
=34	=34	=34	=34
1AA	2A	2A	2e]
.	2c	2e	2a
1r	[1d	[1f	2.a
.	.	.	4a
=35	=35	=35	=35
0r	2d]	2f]	2b
.	2d	2f	1a
.	2c	2e	.
.	2B	2d	2g#i
=36	=36	=36	=36
2r	2A	2e	1a
2D	2A	2d	.
[1G	[1B	[1d	1r
=37	=37	=37	=37
2G]	2B]	2d]	1r
2F	2A	2d	.
2G	2B	2e	2r
2A	2c	2e	2a
=38	=38	=38	=38
2D	2.A	2d	1.a
2D	.	2f	.
.	4B	.	.
2A	4c	2e	.
.	4d	.	.
2A	[2e	2c	2a
=39	=39	=39	=39
1G	4e]	2.g	2b
.	4d	.	.
.	1d	.	2b
.	.	4f	.
1A	.	1e	[1a
.	2c#i	.	.
=40	=40	=40	=40
2D	1d	2r	1a]
2D	.	2d	.
2A	1r	2e	2r
2F	.	2f	2a
=41	=41	=41	=41
1B-X	2r	1d	2a
.	2d	.	2g
2A	2e	1c	2.a
[2A	2c	.	.
.	.	.	4b
=42	=42	=42	=42
2A]	1f	1r	2cc
2F	.	.	1dd
2G	1e	2r	.
2A	.	2A	2cc#i
=43	=43	=43	=43
1D	2r	2.A	1dd
.	1f	.	.
.	.	4F	.
1r	.	1B-X	1d
.	4e	.	.
.	4d	.	.
=44	=44	=44	=44
2r	2c	1A	2e
1A	2.e	.	2c
.	.	1r	1f
.	4d	.	.
2F	[2d	.	.
=45	=45	=45	=45
2G	2d]	2r	1e
2A	2c#i	1a	.
1D	1d	.	2r
.	.	2f	2a
=46	=46	=46	=46
0r	2r	2g	2b
.	2A	2a	2cc
.	2B	2d	2.dd
.	2G	[2g	.
.	.	.	4cc
=47	=47	=47	=47
1D	2.d	2g]	2b
.	.	2f	2a
.	4c	.	.
2E	2B	2e	2g
2F	2A	2d	[2a
=48	=48	=48	=48
1E	1B	1.e	2a]
.	.	.	2g
1AA	[1A	.	2a
.	.	2A	[2cc
=49	=49	=49	=49
2r	1A]	1.c	2cc]
2A	.	.	4b
.	.	.	4a
[1c	1r	.	1g
.	.	2B	.
=50	=50	=50	=50
2c]	2r	2A	1r
2B	2G	1d	.
2A	[1c	.	1e
2A	.	2c	.
=51	=51	=51	=51
1G	2c]	1d	1.g
.	2B	.	.
1D	2A	2r	.
.	[2d	2d	2f
=52	=52	=52	=52
2r	2d]	1.g	2e
2C	2c	.	2e
2.G	1d	.	1d
.	.	4f	.
4A	.	4e	.
=53	=53	=53	=53
2B	2G	2d	2r
1c	2A	2c	2e
.	2G	1d	1g
2B	2G	.	.
=54	=54	=54	=54
1A	1c	2r	1a
.	.	2e	.
2G	1d	[1g	1b
2G	.	.	.
=55	=55	=55	=55
1.c	2.e	1g]	1cc
.	8dL	.	.
.	8cJ	.	.
.	2e	2r	1g
2B	[2d	2G	.
=56	=56	=56	=56
2A	4d]	1c	2r
.	4c	.	.
2A	1c	.	2e
2.G	.	1d	1g
.	2B	.	.
4F	.	.	.
=57	=57	=57	=57
4E	4G	2e	2r
4F	4A	.	.
4G	4B	2.d	2g
4E	4G	.	.
2F	2A	.	1cc
.	.	4c	.
2E	[2G	[2c	.
=58	=58	=58	=58
1D	2G]	2c]	1dd
.	2F	2B	.
2C	1A	2c	2.ee
[2c	.	2c	.
.	.	.	8ddL
.	.	.	8ccJ
=59	=59	=59	=59
2c]	2G	1g	2ee
2B	2d	.	2.dd
2c	2e	1a	.
.	.	.	4cc
2F	2f	.	[2cc
=60	=60	=60	=60
1G	1d	0g	2cc]
.	.	.	2b
1C	1c	.	1cc
=61	=61	=61	=61
0F	0c	0f	0a
=62	=62	=62	=62
1C	1c	1e	1g
[1c	[1e	[1g	[1cc
=63	=63	=63	=63
1c]	1e]	1g]	1cc]
[1G	[1d	[1g	[1b
=64	=64	=64	=64
1G;]	1d;]	1g;]	1b;]
1r	[1d	[1f	1a
=65	=65	=65	=65
0r	1d]	1f]	1.a
.	2c	2e	.
.	2A	2f	2a
=66	=66	=66	=66
0r	1B	1d	1g
.	2A	2e	2a
.	[2d	2f	2a
=67	=67	=67	=67
0G	2d]	2g	2b
.	2c	4f	1a
.	.	4e	.
.	1B	2d	.
.	.	[2e	2g#i
=68	=68	=68	=68
2F	1A	4e]	1a
.	.	4d	.
2D	.	1d	.
1E	1r	.	1r
.	.	2c	.
=69	=69	=69	=69
2D	1.d	2A	1r
1G	.	2.B	.
.	.	.	[1g
.	.	4A	.
2F	2d	[2d	.
=70	=70	=70	=70
1E	1e	2d]	2g]
.	.	2c#i	2g
1D	1f	1d	1a
=71	=71	=71	=71
1.G	2d	1r	1b
.	2.e	.	.
.	.	2r	2g
.	4d	.	.
2G	[2d	2g	[2b
=72	=72	=72	=72
1A	2d]	2f	4b]
.	.	.	4a
.	2c	2.e	1a
1B	1d	.	.
.	.	4d	.
.	.	[2d	2g#i
=73	=73	=73	=73
0A	1.e	2d]	1a
.	.	4c#i	.
.	.	4B	.
.	.	1c#i	1r
.	2e	.	.
=74	=74	=74	=74
0r	1f	1d	1.a
.	1d	2r	.
.	.	2f	2a
=75	=75	=75	=75
0r	1r	2e	1b
.	.	2d	.
.	2r	1e	1cc
.	2e	.	.
=76	=76	=76	=76
2r	2d	1f	1a
2A	2c	.	.
2G	1d	1r	1r
2F	.	.	.
=77	=77	=77	=77
1G	2.e	0r	0r
.	8dL	.	.
.	8eJ	.	.
2A	2f	.	.
[2c	[2e	.	.
=78	=78	=78	=78
4c]	4e]	2r	0r
4B	4d	.	.
4A	4c	2e	.
4G	4B	.	.
2F	2A	2d	.
2E	[2e	2c	.
=79	=79	=79	=79
2.F	4e]	1d	1a
.	4d	.	.
.	1d	.	.
4G	.	.	.
1E	.	1e	[1g
.	2c	.	.
=80	=80	=80	=80
1D	1d	1A	2g]
.	.	.	2f
1r	1e	2r	1g
.	.	2c	.
=81	=81	=81	=81
1r	2d	2f	0a
.	2c	2e	.
2r	1d	2.f	.
2D	.	.	.
.	.	8eL	.
.	.	8dJ	.
=82	=82	=82	=82
2A	0e	2c	1r
2G	.	1d	.
1A	.	.	2r
.	.	2c#i	2a
=83	=83	=83	=83
2D	1f	2d	2.a
2D	.	1a	.
.	.	.	4b
2A	2e	.	2cc
2B	2d	2g	2dd
=84	=84	=84	=84
1A	1e	2a	2dd
.	.	2a	2cc#i
[1D	[1d	[1f	[1dd
=85	=85	=85	=85
1D]	1d]	1f]	1dd]
[1G	[1d	[1g	[1b
=86	=86	=86	=86
0G;]	0d;]	0g;]	0b;]
=	=	=	=
*M3/1	*M3/1	*M3/1	*M3/1
*met(3)	*met(3)	*met(3)	*met(3)
0G	0d	0g	0b
1G	1d	1g	1b
=87	=87	=87	=87
1C	0e	0g	1cc
1G	.	.	1.b
1A	1c	1e	.
.	.	.	2a
=88	=88	=88	=88
1D	1d	1f	0a
0E	0B	0e	.
.	.	.	1g#i
=89	=89	=89	=89
0AA	0A	0e	0a
1r	1r	1r	1r
=90	=90	=90	=90
0G	0d	0g	0b
1G	1d	1g	1b
=91	=91	=91	=91
1c	0e	0g	1cc
1G	.	.	1.b
1A	1c	1e	.
.	.	.	2a
=92	=92	=92	=92
1D	1d	1f	0a
0E	0B	0e	.
.	.	.	1g#i
=93	=93	=93	=93
0F	0A	0c	0a
1F	1A	1d	1a
=94	=94	=94	=94
0.E;	0.B;	0.e;	0.g;
=95	=95	=95	=95
00AAl	00Al	00el	00al
==	==	==	==
*-	*-	*-	*-
!!!system-decoration: [*]
!!!RDF**kern: i = editorial accidental
!!!RDF**kern: l = terminal long
!!!ENC: Benjamin Ory
!!!END: 2022/4/17
!!!EED: Benjamin Ory
!!!EEV: 2022/04/17
!!!YEC: Copyright 2022 Benjamin Ory, All Rights Reserved
!!!ONB: Translated from MusicXML on 2022/04/17
